public/images/poses-lg/SeatedForwardBend.svg

<svg width="800" height="800" fill="none" xmlns="http://www.w3.org/2000/svg"><g clip-path="url(#a)"><path d="M239.409 705.764c10.633-16.544 43.137-50.55 63.912-58.149 20.776-7.594 28.857-10.857 35.52-19.659 6.661-8.803-1.564-63.666 0-83.55 1.563-19.881 25.243-40.512 25.243-40.512l-18.299-27.847s-19.23 18.207-48.718 39.96c-29.488 21.75-59.871 55.876-86.231 87.6-26.359 31.722-67.207 77.197-67.207 77.197l21.186 39.638 74.594-14.678Z" fill="#fff" stroke="#000" stroke-width="5" stroke-miterlimit="10"/><path d="M239.409 705.764c10.633-16.544 43.137-50.55 63.912-58.149 20.776-7.594 28.857-10.857 35.52-19.659 6.661-8.803-1.564-63.666 0-83.55 1.563-19.881 25.243-40.512 25.243-40.512l-18.299-27.847s-19.23 18.207-48.718 39.96c-29.488 21.75-59.871 55.876-86.231 87.6-26.359 31.722-67.207 77.197-67.207 77.197l21.186 39.638 74.594-14.678Z" stroke="#000" stroke-width="5" stroke-miterlimit="10"/><path d="M143.628 680.804c-11.206 14.281-18.732 33.687-17.238 52.817 4.357 55.624 70.691 61.842 104.358 61.842 22.924 0 102.487-8.193 137.242-1.526 47.287 9.074 209.81.895 286.038 2.945 9.85.257 20.038-9.321 18.552-19.072-6.865-45.11 12.25-70.507-9.709-88.758-3.942-3.276-11.822-4.029-13.14.93-1.677 6.502 2.24 14.644 1.48 30.128-.44 8.966-8.524 17.835-15.796 29.228-13.742 12.77-48.944 12.678-57.088 11.983-29.839-2.508-63.616-4.948-88.877-10.946-70.644-16.812-97.214-18.752-167.701-34.515-55.361-12.382-106.613-6.471-132.565 2.193l50.225-12.288s-37.786-4.142-52.365-9.005c-14.576-4.856-43.416-15.956-43.416-15.956Z" fill="#fff" stroke="#000" stroke-width="5" stroke-miterlimit="10"/><path d="M143.628 680.804c-11.206 14.281-18.732 33.687-17.238 52.817 4.357 55.624 70.691 61.842 104.358 61.842 22.924 0 102.487-8.193 137.242-1.526 47.287 9.074 209.81.895 286.038 2.945 9.85.257 20.038-9.321 18.552-19.072-6.865-45.11 12.25-70.507-9.709-88.758-3.942-3.276-11.822-4.029-13.14.93-1.677 6.502 2.24 14.644 1.48 30.128-.44 8.966-8.524 17.835-15.796 29.228-13.742 12.77-48.944 12.678-57.088 11.983-29.839-2.508-63.616-4.948-88.877-10.946-70.644-16.812-97.214-18.752-167.701-34.515-55.361-12.382-106.613-6.471-132.565 2.193l50.225-12.288s-37.786-4.142-52.365-9.005c-14.576-4.856-43.416-15.956-43.416-15.956ZM338.652 548.719s-16.344-18.161-41.468-5.809c-31.419 15.45-21.893 77.838 32.737 64.832" stroke="#000" stroke-width="5" stroke-miterlimit="10"/><path d="M313.566 595.712s122.64 100.344 148.212 114.112c25.568 13.767 122.167 46.327 122.167 46.327 17.518 7.242 27.985 19.09 51.019 22.551 23.039 3.461 22.248.08 21.243-3.26-1.005-3.338-42.008-38.045-62.081-36.728-6.608.432-7.478-.155-10.901-.985l-109.028-56.85-135.545-132.158" fill="#fff"/><path d="M313.566 595.712s122.64 100.344 148.212 114.112c25.568 13.767 122.167 46.327 122.167 46.327 17.518 7.242 27.985 19.09 51.019 22.551 23.039 3.461 22.248.08 21.243-3.26-1.005-3.338-42.008-38.045-62.081-36.728-6.608.432-7.478-.155-10.901-.985l-109.028-56.85-135.545-132.158" stroke="#000" stroke-width="5" stroke-miterlimit="10"/><path d="M313.566 595.712s122.64 100.344 148.212 114.112c25.568 13.767 122.167 46.327 122.167 46.327 17.518 7.242 27.985 19.09 51.019 22.551 23.039 3.461 22.248.08 21.243-3.26-1.005-3.338-42.008-38.045-62.081-36.728-6.608.432-7.478-.155-10.901-.985l-109.028-56.85-135.545-132.158" stroke="#000" stroke-width="5" stroke-miterlimit="10"/><path d="M330.275 428.291c-6.266-17.734-31.498-56.583-69.284-21.271-23.988 22.419-62.559 52.35-91.679 44.912-29.115-7.434-6.873 59.34 32.713 62.929 39.582 3.589 76.775-20.14 87.704-52.585 10.931-32.451 40.546-33.985 40.546-33.985Z" fill="#000" stroke="#000" stroke-width="5" stroke-miterlimit="10"/><path d="M334.121 481.088c-5.053-8.982-.753-17.802-2.455-29.004-2.697-17.802 19.005-35.278 39.087-34.08 26.517 1.579 27.572 96.323 12.204 97.923-9.099.95-25.661-6.762-37.68-21.891-3.864-4.864-11.156-12.948-11.156-12.948Z" fill="#fff" stroke="#000" stroke-width="5" stroke-miterlimit="10"/><path d="M334.121 481.088c-5.053-8.982-.753-17.802-2.455-29.004-2.697-17.802 19.005-35.278 39.087-34.08 26.517 1.579 27.572 96.323 12.204 97.923-9.099.95-25.661-6.762-37.68-21.891-3.864-4.864-11.156-12.948-11.156-12.948Z" stroke="#000" stroke-width="5" stroke-miterlimit="10"/><path d="M381.823 429.084c-.392 16.618-12.71 46.658-33.558 41.145-23.435-6.207-13.911 7.851-12.088 12.277 1.825 4.423 13.2 12.804 10.857 14.056-2.343 1.246-34.664-10.84-37.774-34.821-3.108-23.983 2.773-36.446 15.23-43.789 12.458-7.344 38.274-8.535 50.648-.838 12.373 7.7 6.685 11.97 6.685 11.97Z" fill="#000" stroke="#000" stroke-width="5" stroke-miterlimit="10"/><path d="M293.393 518.776c-3.31 7.762 11.654 12.788 20.173 13.623 8.52.84 21.604 3.563 25.449 10.412M590.831 761.48c4.017 7.161 7.199 25.049 6.195 35.203" stroke="#000" stroke-width="5" stroke-miterlimit="10"/></g><defs><clipPath id="a"><path fill="#fff" d="M0 0h800v800H0z"/></clipPath></defs></svg>

<svg width="800" height="800" viewBox="0 0 800 800" fill="none" xmlns="http://www.w3.org/2000/svg">
<g clip-path="url(#clip0_298_12122)">
<path d="M239.409 705.764C250.042 689.22 282.546 655.214 303.321 647.615C324.097 640.021 332.178 636.758 338.841 627.956C345.502 619.153 337.277 564.29 338.841 544.406C340.404 524.525 364.084 503.894 364.084 503.894L345.785 476.047C345.785 476.047 326.555 494.254 297.067 516.007C267.579 537.757 237.196 571.883 210.836 603.607C184.477 635.329 143.629 680.804 143.629 680.804L164.815 720.442L239.409 705.764Z" fill="white" stroke="black" stroke-width="5" stroke-miterlimit="10"/>
<path d="M239.409 705.764C250.042 689.22 282.546 655.214 303.321 647.615C324.097 640.021 332.178 636.758 338.841 627.956C345.502 619.153 337.277 564.29 338.841 544.406C340.404 524.525 364.084 503.894 364.084 503.894L345.785 476.047C345.785 476.047 326.555 494.254 297.067 516.007C267.579 537.757 237.196 571.883 210.836 603.607C184.477 635.329 143.629 680.804 143.629 680.804L164.815 720.442L239.409 705.764Z" stroke="black" stroke-width="5" stroke-miterlimit="10"/>
<path d="M143.628 680.804C132.422 695.085 124.896 714.491 126.39 733.621C130.747 789.245 197.081 795.463 230.748 795.463C253.672 795.463 333.235 787.27 367.99 793.937C415.277 803.011 577.8 794.832 654.028 796.882C663.878 797.139 674.066 787.561 672.58 777.81C665.715 732.7 684.83 707.303 662.871 689.052C658.929 685.776 651.049 685.023 649.731 689.982C648.054 696.484 651.971 704.626 651.211 720.11C650.771 729.076 642.687 737.945 635.415 749.338C621.673 762.108 586.471 762.016 578.327 761.321C548.488 758.813 514.711 756.373 489.45 750.375C418.806 733.563 392.236 731.623 321.749 715.86C266.388 703.478 215.136 709.389 189.184 718.053L239.409 705.765C239.409 705.765 201.623 701.623 187.044 696.76C172.468 691.904 143.628 680.804 143.628 680.804Z" fill="white" stroke="black" stroke-width="5" stroke-miterlimit="10"/>
<path d="M143.628 680.804C132.422 695.085 124.896 714.491 126.39 733.621C130.747 789.245 197.081 795.463 230.748 795.463C253.672 795.463 333.235 787.27 367.99 793.937C415.277 803.011 577.8 794.832 654.028 796.882C663.878 797.139 674.066 787.561 672.58 777.81C665.715 732.7 684.83 707.303 662.871 689.052C658.929 685.776 651.049 685.023 649.731 689.982C648.054 696.484 651.971 704.626 651.211 720.11C650.771 729.076 642.687 737.945 635.415 749.338C621.673 762.108 586.471 762.016 578.327 761.321C548.488 758.813 514.711 756.373 489.45 750.375C418.806 733.563 392.236 731.623 321.749 715.86C266.388 703.478 215.136 709.389 189.184 718.053L239.409 705.765C239.409 705.765 201.623 701.623 187.044 696.76C172.468 691.904 143.628 680.804 143.628 680.804Z" stroke="black" stroke-width="5" stroke-miterlimit="10"/>
<path d="M338.652 548.719C338.652 548.719 322.308 530.558 297.184 542.91C265.765 558.36 275.291 620.748 329.921 607.742" stroke="black" stroke-width="5" stroke-miterlimit="10"/>
<path d="M313.566 595.712C313.566 595.712 436.206 696.056 461.778 709.824C487.346 723.591 583.945 756.151 583.945 756.151C601.463 763.393 611.93 775.241 634.964 778.702C658.003 782.163 657.212 778.782 656.207 775.442C655.202 772.104 614.199 737.397 594.126 738.714C587.518 739.146 586.648 738.559 583.225 737.729L474.197 680.879L338.652 548.721" fill="white"/>
<path d="M313.566 595.712C313.566 595.712 436.206 696.056 461.778 709.824C487.346 723.591 583.945 756.151 583.945 756.151C601.463 763.393 611.93 775.241 634.964 778.702C658.003 782.163 657.212 778.782 656.207 775.442C655.202 772.104 614.199 737.397 594.126 738.714C587.518 739.146 586.648 738.559 583.225 737.729L474.197 680.879L338.652 548.721" stroke="black" stroke-width="5" stroke-miterlimit="10"/>
<path d="M313.566 595.712C313.566 595.712 436.206 696.056 461.778 709.824C487.346 723.591 583.945 756.151 583.945 756.151C601.463 763.393 611.93 775.241 634.964 778.702C658.003 782.163 657.212 778.782 656.207 775.442C655.202 772.104 614.199 737.397 594.126 738.714C587.518 739.146 586.648 738.559 583.225 737.729L474.197 680.879L338.652 548.721" stroke="black" stroke-width="5" stroke-miterlimit="10"/>
<path d="M330.275 428.291C324.009 410.557 298.777 371.708 260.991 407.02C237.003 429.439 198.432 459.37 169.312 451.932C140.197 444.498 162.439 511.272 202.025 514.861C241.607 518.45 278.8 494.721 289.729 462.276C300.66 429.825 330.275 428.291 330.275 428.291Z" fill="black" stroke="black" stroke-width="5" stroke-miterlimit="10"/>
<path d="M334.121 481.088C329.068 472.106 333.368 463.286 331.666 452.084C328.969 434.282 350.671 416.806 370.753 418.004C397.27 419.583 398.325 514.327 382.957 515.927C373.858 516.877 357.296 509.165 345.277 494.036C341.413 489.172 334.121 481.088 334.121 481.088Z" fill="white" stroke="black" stroke-width="5" stroke-miterlimit="10"/>
<path d="M334.121 481.088C329.068 472.106 333.368 463.286 331.666 452.084C328.969 434.282 350.671 416.806 370.753 418.004C397.27 419.583 398.325 514.327 382.957 515.927C373.858 516.877 357.296 509.165 345.277 494.036C341.413 489.172 334.121 481.088 334.121 481.088Z" stroke="black" stroke-width="5" stroke-miterlimit="10"/>
<path d="M381.823 429.084C381.431 445.702 369.113 475.742 348.265 470.229C324.83 464.022 334.354 478.08 336.177 482.506C338.002 486.929 349.377 495.31 347.034 496.562C344.691 497.808 312.37 485.722 309.26 461.741C306.152 437.758 312.033 425.295 324.49 417.952C336.948 410.608 362.764 409.417 375.138 417.114C387.511 424.814 381.823 429.084 381.823 429.084Z" fill="black" stroke="black" stroke-width="5" stroke-miterlimit="10"/>
<path d="M293.393 518.776C290.083 526.538 305.047 531.564 313.566 532.399C322.086 533.239 335.17 535.962 339.015 542.811" stroke="black" stroke-width="5" stroke-miterlimit="10"/>
<path d="M590.831 761.48C594.848 768.641 598.03 786.529 597.026 796.683" stroke="black" stroke-width="5" stroke-miterlimit="10"/>
</g>
<defs>
<clipPath id="clip0_298_12122">
<rect width="800" height="800" fill="white"/>
</clipPath>
</defs>
</svg>
